X:1
T:Simon Slick
M:2/2
L:1/4
K:G
 d| d3/2 d/2 d3/2 c/2| B B2 A| G G A B| c3| e| d3/2 d/2 d d| e d d3/2 D/2|\
 D c B A| B3| d| d3/2 d/2 d3/2 c/2| B B B A| G G A B| c3| e| d3/2 d/2 d d|\
 e d d3/2 D/2| D c B A| G2 z| B2 d/2- B3/2| G3 G| E3/2 E/2 G G| E D2 D|\
 G G G3/2 A/2| B B A G/2G/2| B A A3/2 G/2| B A2 d| d3/2 d/2 d3/2 c/2|\
 B B B3/2 A/4A/4| G G A B| c3 e| d3/2 d/2 d d| e d2D/2-D/2| D c B A|\
 G3||
